X:183
T: Man hao
N: C0305
O: China,Shandong, Wenshang
S: III, 340]
N: grosse, schwere Steine festschlagen wegen der Ueberschwemmungen.
N: Ein Satz, ein Stein. Vgl. hierzu S. 308
N: Phrasierung nach notierten Atemzeichen vorgenommen. Wenig Verzierungen
R: Haozi, Huanghe wohao, Erban hao. Xin minge]
M: 2/4
L: 1/16
K: E
G2B2G2GF | FD2DC2C2 | B,3CE3D | C2G,B,C2
CC | E4F4 | FDDCB,4 | B,3CE3D | C2G,B,C2
CC | C2E2C2F2 | DCB,F,B,4 | B,3CE3D | C2G,B,C2
CC | EEEEEG2F | E4(3EFGBG | F3GB2G2 | E4E4

@@@ Tune index: 6184
